wifi-marker.svg

<svg fill="currentColor" viewBox="0 0 24 24"><path d="M12 6C8.62 6 5.5 7.12 3 9L1.2 6.6C4.21 4.34 7.95 3 12 3s7.79 1.34 10.8 3.6L21 9c-2.5-1.88-5.62-3-9-3m1 9.09c-.31-.06-.65-.09-1-.09-1.35 0-2.6.45-3.6 1.2L12 21l1.8-2.4c-.47-1.02-.8-2.1-.8-3.1zM12 9c-2.7 0-5.19.89-7.2 2.4l1.8 2.4C8.1 12.67 9.97 12 12 12c.73 0 1.43.09 2.1.25.76-1 1.83-1.75 3.07-2.07A11.96 11.96 0 0 0 12 9m10 6.5c0 2.6-3.5 6.5-3.5 6.5S15 18.1 15 15.5c0-1.9 1.6-3.5 3.5-3.5s3.5 1.6 3.5 3.5m-2.3.1c0-.6-.6-1.2-1.2-1.2s-1.2.5-1.2 1.2c0 .6.5 1.2 1.2 1.2s1.3-.6 1.2-1.2"/></svg>

<svg  viewBox="0 0 24 24" fill="currentColor"><path  d="M12 6C8.62 6 5.5 7.12 3 9L1.2 6.6C4.21 4.34 7.95 3 12 3S19.79 4.34 22.8 6.6L21 9C18.5 7.12 15.38 6 12 6M13 15.09C12.69 15.03 12.35 15 12 15C10.65 15 9.4 15.45 8.4 16.2L12 21L13.8 18.6C13.33 17.58 13 16.5 13 15.5C13 15.36 13 15.23 13 15.09M12 9C9.3 9 6.81 9.89 4.8 11.4L6.6 13.8C8.1 12.67 9.97 12 12 12C12.73 12 13.43 12.09 14.1 12.25C14.86 11.25 15.93 10.5 17.17 10.18C15.6 9.43 13.85 9 12 9M22 15.5C22 18.1 18.5 22 18.5 22S15 18.1 15 15.5C15 13.6 16.6 12 18.5 12S22 13.6 22 15.5M19.7 15.6C19.7 15 19.1 14.4 18.5 14.4S17.3 14.9 17.3 15.6C17.3 16.2 17.8 16.8 18.5 16.8S19.8 16.2 19.7 15.6Z"/></svg>
